X: 42388
T: Wellington Square
R: jig
M: 6/8
K: Dmajor
D2D B,A,D|FDA BAd|Gdd BAd|cAB AFE:|
FAB ADE|FDE FDA,|G,DD EDF|GAB cAE:|

